icons/clear.svg

<svg fill="none" height="28" viewBox="0 0 28 28" width="28" xmlns="http://www.w3.org/2000/svg"><path d="m7.19897 3.9385c.33629-.01703.68172.05401.9977.15357.63759.20094 1.39169.59252 2.19173 1.09501 1.5787.99161 3.5138 2.53156 5.433 4.35291 1.7736-1.93906 3.7972-3.78946 6.1019-5.27819l.1644-.08413c.3969-.15506.8613-.01624 1.1016.35558.2744.42483.1516.99176-.2732 1.26619-2.1718 1.40295-4.0909 3.16222-5.7901 5.02716 1.5596 1.5957 3.0694 3.3594 4.3154 5.1542 1.4485 2.0869 2.5897 4.2831 2.9962 6.3452l.0721.4118.0088.1842c-.0225.4253-.3406.7909-.7782.8567-.4377.0656-.8504-.1902-.9966-.5903l-.0443-.1791-.0593-.3357c-.3356-1.6962-1.3143-3.6465-2.7045-5.6491-1.1516-1.659-2.5551-3.3059-4.0202-4.8144-1.4777 1.7657-2.7695 3.5727-3.9007 5.2223-1.2987 1.894-2.42355 3.6422-3.33044 4.781-.44829.5629-.91662 1.0723-1.3945 1.3779-.24576.1571-.55357.3004-.90845.3247-.38376.0263-.74375-.0916-1.04123-.3254-1.01927-.8014-.8272-2.0454-.52512-2.9304.32257-.9448.94829-2.0366 1.57215-3.0949.64521-1.0945 1.3133-2.1925 1.82082-3.2554.51489-1.0784.79832-1.9901.77791-2.7039-.04246-1.4813-.9212-2.43269-1.87131-3.38098-.42222-.4214-.97624-.95027-1.26731-1.51477-.16207-.3145-.27702-.69564-.23253-1.12579.04459-.42999.23792-.80895.51019-1.1381l.11898-.12648c.29074-.27168.65185-.36588.95511-.38138zm.27629 1.93376c.12713.24613.41441.53798.93381 1.05638.93387.93206 2.34103 2.34673 2.40633 4.62496.0334 1.1663-.4117 2.4047-.95565 3.544-.55128 1.1546-1.27228 2.3427-1.89501 3.3991-.64414 1.0927-1.16513 2.0191-1.41629 2.7546-.12614.3695-.15304.5889-.14457.7183.20162-.1576.48356-.4401.84784-.8975.85262-1.0707 1.89757-2.7005 3.25248-4.6764 1.1606-1.6926 2.5209-3.5981 4.1059-5.4793-1.8749-1.78449-3.7347-3.2596-5.19694-4.17801-.74828-.46997-1.34757-.76668-1.76675-.8988-.08326-.02624-.15126-.04134-.20448-.05216.00412.01597.01225.04394.03333.08483z" fill="#fff"/></svg>

<svg width="28" height="28" viewBox="0 0 28 28" fill="none" xmlns="http://www.w3.org/2000/svg">
<path d="M7.19897 3.9385C7.53526 3.92147 7.88069 3.99251 8.19667 4.09207C8.83426 4.29301 9.58836 4.68459 10.3884 5.18708C11.9671 6.17869 13.9022 7.71864 15.8214 9.53999C17.595 7.60093 19.6186 5.75053 21.9233 4.2618L22.0877 4.17767C22.4846 4.02261 22.949 4.16143 23.1893 4.53325C23.4637 4.95808 23.3409 5.52501 22.9161 5.79944C20.7443 7.20239 18.8252 8.96166 17.126 10.8266C18.6856 12.4223 20.1954 14.186 21.4414 15.9808C22.8899 18.0677 24.0311 20.2639 24.4376 22.326L24.5097 22.7378L24.5185 22.922C24.496 23.3473 24.1779 23.7129 23.7403 23.7787C23.3026 23.8443 22.8899 23.5885 22.7437 23.1884L22.6994 23.0093L22.6401 22.6736C22.3045 20.9774 21.3258 19.0271 19.9356 17.0245C18.784 15.3655 17.3805 13.7186 15.9154 12.2101C14.4377 13.9758 13.1459 15.7828 12.0147 17.4324C10.716 19.3264 9.59115 21.0746 8.68426 22.2134C8.23597 22.7763 7.76764 23.2857 7.28976 23.5913C7.044 23.7484 6.73619 23.8917 6.38131 23.916C5.99755 23.9423 5.63756 23.8244 5.34008 23.5906C4.32081 22.7892 4.51288 21.5452 4.81496 20.6602C5.13753 19.7154 5.76325 18.6236 6.38711 17.5653C7.03232 16.4708 7.70041 15.3728 8.20793 14.3099C8.72282 13.2315 9.00625 12.3198 8.98584 11.606C8.94338 10.1247 8.06464 9.17331 7.11453 8.22502C6.69231 7.80362 6.13829 7.27475 5.84722 6.71025C5.68515 6.39575 5.5702 6.01461 5.61469 5.58446C5.65928 5.15447 5.85261 4.77551 6.12488 4.44636L6.24386 4.31988C6.5346 4.0482 6.89571 3.954 7.19897 3.9385ZM7.47526 5.87226C7.60239 6.11839 7.88967 6.41024 8.40907 6.92864C9.34294 7.8607 10.7501 9.27537 10.8154 11.5536C10.8488 12.7199 10.4037 13.9583 9.85975 15.0976C9.30847 16.2522 8.58747 17.4403 7.96474 18.4967C7.3206 19.5894 6.79961 20.5158 6.54845 21.2513C6.42231 21.6208 6.39541 21.8402 6.40388 21.9696C6.6055 21.812 6.88744 21.5295 7.25172 21.0721C8.10434 20.0014 9.14929 18.3716 10.5042 16.3957C11.6648 14.7031 13.0251 12.7976 14.6101 10.9164C12.7352 9.13191 10.8754 7.6568 9.41316 6.73839C8.66488 6.26842 8.06559 5.97171 7.64641 5.83959C7.56315 5.81335 7.49515 5.79825 7.44193 5.78743C7.44605 5.8034 7.45418 5.83137 7.47526 5.87226Z" fill="white"/>
</svg>
